X:436
T:
R:vals
S:Efter »Florsen» i Burs.
O:Gotland, Burs
M:3/4
L:1/8
K:D
d2|d4 c2|D2 F2 G2|B4 A2|D2 F2 A2|A4 G2|A,2 C2 E2|G4 FE|D2 F2 A2|d4 c2|E2 F2 G2|B4 A2|D2 F2 A2|A4 G2|A,2 C2 E2|
G4 FE|D4::a2|(ag)(ec) A2|(fe)(dB) E2|EGBAGE|DFAdfa|(ag)(ec) A2|(fe)(dB) E2|EGBAGE|D4:|

